femmes/public/img/illustrations/slide5/red-gloves.svg

<?xml version="1.0" encoding="UTF-8" standalone="no"?>
<svg
   width="281"
   height="245"
   viewBox="0 0 281 245"
   fill="none"
   version="1.1"
   id="svg400"
   sodipodi:docname="red-gloves.svg"
   inkscape:version="1.1.2 (0a00cf5339, 2022-02-04)"
   xmlns:inkscape="http://www.inkscape.org/namespaces/inkscape"
   xmlns:sodipodi="http://sodipodi.sourceforge.net/DTD/sodipodi-0.dtd"
   xmlns="http://www.w3.org/2000/svg"
   xmlns:svg="http://www.w3.org/2000/svg">
  <sodipodi:namedview
     id="namedview402"
     pagecolor="#ffffff"
     bordercolor="#666666"
     borderopacity="1.0"
     inkscape:pageshadow="2"
     inkscape:pageopacity="0.0"
     inkscape:pagecheckerboard="0"
     showgrid="false"
     inkscape:zoom="1.0972782"
     inkscape:cx="220.09004"
     inkscape:cy="164.95361"
     inkscape:window-width="1916"
     inkscape:window-height="1053"
     inkscape:window-x="0"
     inkscape:window-y="0"
     inkscape:window-maximized="1"
     inkscape:current-layer="svg400" />
  <g
     clip-path="url(#clip0_223_282)"
     id="g369"
     transform="translate(-6)">
    <path
       d="M 34.0451,90.5794 C 30.5506,86.1157 31.3078,79.6281 35.7362,76.0891 L 102.897,22.4159 c 4.227,-3.3781 10.157,-3.4926 14.491,-0.2755 8.702,6.4612 23.684,17.6615 36.868,27.9088 14.107,10.965 14.217,32.4198 0.226,43.6004 l -20.005,15.9874 20.218,-16.1566 c 0.057,-0.0456 0.14,-0.035 0.185,0.0216 9.314,12.013 7.253,29.403 -4.633,38.903 l -43.074,34.423 c -4.564,3.648 -11.1851,2.875 -14.7867,-1.726 L 66.5322,185.764 7.75117,111.593 34.046,90.5786 Z"
       fill="#dc1e19"
       id="path356" />
    <mask
       id="mask0_223_282"
       maskUnits="userSpaceOnUse"
       x="7"
       y="19"
       width="158"
       height="167">
      <path
         d="M 34.0447,90.5793 C 30.5502,86.1156 31.3074,79.628 35.7358,76.0889 L 102.896,22.4157 c 4.227,-3.3781 10.158,-3.4926 14.491,-0.2754 8.703,6.4612 23.685,17.6614 36.869,27.9088 14.106,10.9649 14.216,32.4197 0.226,43.6004 l -20.005,15.9875 20.218,-16.1567 c 0.057,-0.0456 0.14,-0.035 0.185,0.0216 9.313,12.0131 7.253,29.4031 -4.634,38.9021 l -43.073,34.424 c -4.565,3.648 -11.1855,2.875 -14.7871,-1.726 L 66.5318,185.764 7.75078,111.593 34.0456,90.5785 Z"
         fill="#ffffff"
         id="path358" />
    </mask>
    <g
       mask="url(#mask0_223_282)"
       id="g367">
      <path
         d="m 57.8883,71.7596 2.406,-2.4646 27.8039,27.6793 C 104.8,112.914 131.054,114.052 149.144,99.5962 l 7.065,-5.6462 2.12,2.7083 -7.065,5.6457 c -9.456,7.558 -21.291,11.432 -33.326,10.911 -12.033,-0.521 -23.476,-5.404 -32.2204,-13.7505 L 57.8874,71.7604 Z"
         fill="#000000"
         id="path361" />
      <path
         d="M 89.2816,156.197 41.9942,95.7937 39.307,97.9414 86.5944,158.345 Z"
         fill="#000000"
         id="path363" />
      <path
         d="m 80.6359,133.14 16.9202,-13.522 c 6.3819,-5.101 15.1189,-5.191 21.5109,-0.819 l -1.363,-6.942 3.358,-0.679 3.771,19.199 -4.405,-5.628 c -5.047,-6.446 -14.356,-7.532 -20.751,-2.421 l -16.9203,13.522 -2.1202,-2.708 z"
         fill="#000000"
         id="path365" />
    </g>
  </g>
  <g
     clip-path="url(#clip1_223_282)"
     id="g384"
     transform="translate(-6)">
    <path
       d="m 278.599,189.517 c 5.507,-1.344 8.927,-6.909 7.638,-12.429 L 266.695,93.3652 c -1.229,-5.2694 -5.817,-9.0295 -11.212,-9.184 -10.835,-0.3099 -29.534,-0.7829 -46.232,-0.892 -17.867,-0.1162 -31.23,16.6691 -27.159,34.1098 l 5.821,24.938 -5.883,-25.203 c -0.017,-0.071 -0.089,-0.114 -0.159,-0.098 -14.75,3.673 -23.893,18.609 -20.434,33.427 l 12.533,53.696 c 1.328,5.689 7.007,9.18 12.683,7.794 l 7.523,32.23 92.074,-21.888 -7.651,-32.78 z"
       fill="#dc1e19"
       id="path371" />
    <mask
       id="mask1_223_282"
       maskUnits="userSpaceOnUse"
       x="160"
       y="83"
       width="127"
       height="162">
      <path
         d="m 278.599,189.517 c 5.507,-1.344 8.927,-6.909 7.639,-12.429 L 266.696,93.3654 c -1.23,-5.2694 -5.818,-9.0296 -11.213,-9.184 -10.834,-0.3099 -29.534,-0.783 -46.232,-0.8921 -17.866,-0.1162 -31.229,16.6692 -27.159,34.1097 l 5.821,24.938 -5.883,-25.203 c -0.017,-0.071 -0.089,-0.114 -0.159,-0.098 -14.75,3.674 -23.893,18.609 -20.434,33.427 l 12.533,53.696 c 1.329,5.69 7.008,9.18 12.684,7.795 l 7.523,32.229 92.073,-21.888 -7.651,-32.779 z"
         fill="#ffffff"
         id="path373" />
    </mask>
    <g
       mask="url(#mask1_223_282)"
       id="g382">
      <path
         d="m 271.515,159.978 -0.364,-3.425 -38.97,4.538 c -22.983,2.185 -44.311,-13.167 -49.575,-35.718 l -2.056,-8.807 -3.341,0.816 2.055,8.807 c 2.752,11.788 9.651,22.156 19.427,29.193 9.775,7.038 21.785,10.283 33.819,9.138 l 39.006,-4.54 z"
         fill="#000000"
         id="path376" />
      <path
         d="m 194.603,206.879 74.525,-18.185 0.782,3.35 -74.525,18.185 z"
         fill="#000000"
         id="path378" />
      <path
         d="m 215.663,194.117 -4.923,-21.092 c -1.857,-7.956 -8.665,-13.433 -16.392,-13.955 l 5.367,-4.609 -2.217,-2.612 -14.843,12.747 6.943,-1.694 c 7.953,-1.94 15.938,2.967 17.798,10.939 l 4.924,21.093 3.341,-0.816 z"
         fill="#000000"
         id="path380" />
    </g>
  </g>
  <line
     x1="232.911"
     y1="43.108898"
     x2="195.03101"
     y2="61.3564"
     stroke="#dc1e19"
     stroke-width="3"
     id="line386" />
  <line
     x1="205.91299"
     y1="1.0891304"
     x2="180.567"
     y2="51.554501"
     stroke="#dc1e19"
     stroke-width="3"
     id="line388" />
  <line
     x1="152.936"
     y1="14.5482"
     x2="163.213"
     y2="47.436901"
     stroke="#dc1e19"
     stroke-width="3"
     id="line390" />
  <defs
     id="defs398">
    <clipPath
       id="clip0_223_282">
      <rect
         width="170"
         height="152"
         fill="#ffffff"
         transform="rotate(96.6564,73.428893,89.342849)"
         id="rect392"
         x="0"
         y="0" />
    </clipPath>
    <clipPath
       id="clip1_223_282">
      <rect
         width="170"
         height="152"
         fill="#ffffff"
         transform="matrix(-0.523601,0.851964,0.851964,0.523601,210.758,54.8348)"
         id="rect395"
         x="0"
         y="0" />
    </clipPath>
  </defs>
</svg>

<svg width="335" height="280" viewBox="0 0 335 280" fill="none" xmlns="http://www.w3.org/2000/svg">
<g clip-path="url(#clip0_223_282)">
<path d="M34.0451 90.5794C30.5506 86.1157 31.3078 79.6281 35.7362 76.0891L102.897 22.4159C107.124 19.0378 113.054 18.9233 117.388 22.1404C126.09 28.6016 141.072 39.8019 154.256 50.0492C168.363 61.0142 168.473 82.469 154.482 93.6496L134.477 109.637L154.695 93.4804C154.752 93.4348 154.835 93.4454 154.88 93.502C164.194 105.515 162.133 122.905 150.247 132.405L107.173 166.828C102.609 170.476 95.9879 169.703 92.3863 165.102L66.5322 185.764L7.75117 111.593L34.046 90.5786L34.0451 90.5794Z" fill="#DC1E19"/>
<mask id="mask0_223_282" style="mask-type:luminance" maskUnits="userSpaceOnUse" x="7" y="19" width="158" height="167">
<path d="M34.0447 90.5793C30.5502 86.1156 31.3074 79.628 35.7358 76.0889L102.896 22.4157C107.123 19.0376 113.054 18.9231 117.387 22.1403C126.09 28.6015 141.072 39.8017 154.256 50.0491C168.362 61.014 168.472 82.4688 154.482 93.6495L134.477 109.637L154.695 93.4803C154.752 93.4347 154.835 93.4453 154.88 93.5019C164.193 105.515 162.133 122.905 150.246 132.404L107.173 166.828C102.608 170.476 95.9875 169.703 92.3859 165.102L66.5318 185.764L7.75078 111.593L34.0456 90.5785L34.0447 90.5793Z" fill="white"/>
</mask>
<g mask="url(#mask0_223_282)">
<path d="M57.8883 71.7596L60.2943 69.295L88.0982 96.9743C104.8 112.914 131.054 114.052 149.144 99.5962L156.209 93.95L158.329 96.6583L151.264 102.304C141.808 109.862 129.973 113.736 117.938 113.215C105.905 112.694 94.462 107.811 85.7176 99.4645L57.8874 71.7604L57.8883 71.7596Z" fill="black"/>
<path d="M89.2816 156.197L41.9942 95.7937L39.307 97.9414L86.5944 158.345L89.2816 156.197Z" fill="black"/>
<path d="M80.6359 133.14L97.5561 119.618C103.938 114.517 112.675 114.427 119.067 118.799L117.704 111.857L121.062 111.178L124.833 130.377L120.428 124.749C115.381 118.303 106.072 117.217 99.677 122.328L82.7567 135.85L80.6365 133.142L80.6359 133.14Z" fill="black"/>
</g>
</g>
<g clip-path="url(#clip1_223_282)">
<path d="M278.599 189.517C284.106 188.173 287.526 182.608 286.237 177.088L266.695 93.3652C265.466 88.0958 260.878 84.3357 255.483 84.1812C244.648 83.8713 225.949 83.3983 209.251 83.2892C191.384 83.173 178.021 99.9583 182.092 117.399L187.913 142.337L182.03 117.134C182.013 117.063 181.941 117.02 181.871 117.036C167.121 120.709 157.978 135.645 161.437 150.463L173.97 204.159C175.298 209.848 180.977 213.339 186.653 211.953L194.176 244.183L286.25 222.295L278.599 189.515L278.599 189.517Z" fill="#DC1E19"/>
<mask id="mask1_223_282" style="mask-type:luminance" maskUnits="userSpaceOnUse" x="160" y="83" width="127" height="162">
<path d="M278.599 189.517C284.106 188.173 287.526 182.608 286.238 177.088L266.696 93.3654C265.466 88.096 260.878 84.3358 255.483 84.1814C244.649 83.8715 225.949 83.3984 209.251 83.2893C191.385 83.1731 178.022 99.9585 182.092 117.399L187.913 142.337L182.03 117.134C182.013 117.063 181.941 117.02 181.871 117.036C167.121 120.71 157.978 135.645 161.437 150.463L173.97 204.159C175.299 209.849 180.978 213.339 186.654 211.954L194.177 244.183L286.25 222.295L278.599 189.516L278.599 189.517Z" fill="white"/>
</mask>
<g mask="url(#mask1_223_282)">
<path d="M271.515 159.978L271.151 156.553L232.181 161.091C209.198 163.276 187.87 147.924 182.606 125.373L180.55 116.566L177.209 117.382L179.264 126.189C182.016 137.977 188.915 148.345 198.691 155.382C208.466 162.42 220.476 165.665 232.51 164.52L271.516 159.98L271.515 159.978Z" fill="black"/>
<path d="M194.603 206.879L269.128 188.694L269.91 192.044L195.385 210.229L194.603 206.879Z" fill="black"/>
<path d="M215.663 194.117L210.74 173.025C208.883 165.069 202.075 159.592 194.348 159.07L199.715 154.461L197.498 151.849L182.655 164.596L189.598 162.902C197.551 160.962 205.536 165.869 207.396 173.841L212.32 194.934L215.661 194.118L215.663 194.117Z" fill="black"/>
</g>
</g>
<line x1="238.911" y1="43.1089" x2="201.031" y2="61.3564" stroke="#DC1E19" stroke-width="3"/>
<line x1="211.913" y1="1.08913" x2="186.567" y2="51.5545" stroke="#DC1E19" stroke-width="3"/>
<line x1="158.936" y1="14.5482" x2="169.213" y2="47.4369" stroke="#DC1E19" stroke-width="3"/>
<defs>
<clipPath id="clip0_223_282">
<rect width="170" height="152" fill="white" transform="translate(170.681 26.7651) rotate(96.6564)"/>
</clipPath>
<clipPath id="clip1_223_282">
<rect width="170" height="152" fill="white" transform="matrix(-0.523601 0.851964 0.851964 0.523601 210.758 54.8348)"/>
</clipPath>
</defs>
</svg>
